html/assets/images/dynamic/life-sciences-icon-3.svg

<svg width="98" height="85" viewBox="0 0 98 85" fill="none" xmlns="http://www.w3.org/2000/svg">
<path d="M40.5465 37.9534C39.384 37.9534 38.4329 37.0023 38.4329 35.8398V29.4989C38.4329 27.0893 45.429 23.158 51.1147 23.158C56.8215 23.158 63.7965 27.0893 63.7965 29.4989V35.8398C63.7965 37.0023 62.8454 37.9534 61.6829 37.9534H40.5465Z" stroke="#00999A" stroke-width="4" stroke-miterlimit="10"/>
<path d="M51.1142 23.1575C56.1869 23.1575 59.5688 19.0993 59.5688 14.09V11.0675C59.5688 6.05818 56.2081 2 51.1142 2C46.0203 2 42.6597 6.05818 42.6597 11.0675V14.09C42.6597 19.0993 46.0415 23.1575 51.1142 23.1575Z" stroke="#00999A" stroke-width="4" stroke-miterlimit="10"/>
<path d="M72.2501 82.3387C71.0876 82.3387 70.1365 81.3875 70.1365 80.225V73.8841C70.1365 71.4746 77.1326 67.5432 82.8183 67.5432C88.5251 67.5432 95.5001 71.4746 95.5001 73.8841V80.225C95.5001 81.3875 94.549 82.3387 93.3865 82.3387H72.2501Z" stroke="#00999A" stroke-width="4" stroke-miterlimit="10"/>
<path d="M82.8181 67.5441C87.8908 67.5441 91.2726 63.4859 91.2726 58.4766V55.4541C91.2726 50.4448 87.9119 46.3866 82.8181 46.3866C77.7242 46.3866 74.3635 50.4448 74.3635 55.4541V58.4766C74.3635 63.4859 77.7242 67.5441 82.8181 67.5441Z" stroke="#00999A" stroke-width="4" stroke-miterlimit="10"/>
<path d="M4.61364 82.3387C3.45114 82.3387 2.5 81.3875 2.5 80.225V73.8841C2.5 71.4746 9.49614 67.5432 15.1818 67.5432C20.8886 67.5432 27.8636 71.4746 27.8636 73.8841V80.225C27.8636 81.3875 26.9125 82.3387 25.75 82.3387H4.61364Z" stroke="#00999A" stroke-width="4" stroke-miterlimit="10"/>
<path d="M15.1814 67.5441C20.2541 67.5441 23.6359 63.4859 23.6359 58.4766V55.4541C23.6359 50.4448 20.2752 46.3866 15.1814 46.3866C10.0875 46.3866 6.72681 50.4448 6.72681 55.4541V58.4766C6.72681 63.4859 10.1086 67.5441 15.1814 67.5441Z" stroke="#00999A" stroke-width="4" stroke-miterlimit="10"/>
<path d="M10.9536 40.067V18.9306C10.9536 15.422 13.7859 12.5897 17.2945 12.5897H34.2036" stroke="#00999A" stroke-width="4" stroke-miterlimit="10"/>
<path d="M25.75 21.0437L34.2045 12.5892L25.75 4.13464" stroke="#00999A" stroke-width="4" stroke-miterlimit="10"/>
<path d="M42.6582 73.8854L34.2036 65.4309L42.6582 56.9763" stroke="#00999A" stroke-width="4" stroke-miterlimit="10"/>
<path d="M65.9097 12.5897H78.5915C82.1001 12.5897 84.9324 15.422 84.9324 18.9306V37.9534" stroke="#00999A" stroke-width="4" stroke-miterlimit="10"/>
<path d="M76.4768 29.498L84.9314 37.9526L93.3859 29.498" stroke="#00999A" stroke-width="4" stroke-miterlimit="10"/>
<path d="M65.9082 65.4298H34.2036" stroke="#00999A" stroke-width="4" stroke-miterlimit="10"/>
</svg>

<svg width="98" height="85" fill="none" xmlns="http://www.w3.org/2000/svg"><path d="M40.547 37.953a2.12 2.12 0 01-2.114-2.113v-6.341c0-2.41 6.996-6.341 12.682-6.341 5.706 0 12.681 3.931 12.681 6.34v6.342a2.12 2.12 0 01-2.113 2.113H40.547zm10.567-14.796c5.073 0 8.455-4.058 8.455-9.067v-3.022c0-5.01-3.36-9.068-8.455-9.068-5.094 0-8.454 4.058-8.454 9.068v3.022c0 5.01 3.382 9.067 8.454 9.067zM72.25 82.339a2.12 2.12 0 01-2.114-2.114v-6.34c0-2.41 6.997-6.342 12.682-6.342 5.707 0 12.682 3.932 12.682 6.341v6.341a2.12 2.12 0 01-2.114 2.114H72.25z" stroke="#00999A" stroke-width="4" stroke-miterlimit="10"/><path d="M82.818 67.544c5.073 0 8.455-4.058 8.455-9.067v-3.023c0-5.01-3.361-9.067-8.455-9.067-5.094 0-8.454 4.058-8.454 9.067v3.023c0 5.009 3.36 9.067 8.454 9.067zM4.614 82.339A2.12 2.12 0 012.5 80.225v-6.34c0-2.41 6.996-6.342 12.682-6.342 5.707 0 12.682 3.932 12.682 6.341v6.341a2.12 2.12 0 01-2.114 2.114H4.614z" stroke="#00999A" stroke-width="4" stroke-miterlimit="10"/><path d="M15.181 67.544c5.073 0 8.455-4.058 8.455-9.067v-3.023c0-5.01-3.36-9.067-8.455-9.067-5.093 0-8.454 4.058-8.454 9.067v3.023c0 5.009 3.382 9.067 8.454 9.067zm-4.227-27.477V18.931a6.332 6.332 0 016.34-6.341h16.91" stroke="#00999A" stroke-width="4" stroke-miterlimit="10"/><path d="M25.75 21.044l8.455-8.455-8.455-8.454m16.908 69.75l-8.454-8.454 8.454-8.455M65.91 12.59h12.68a6.332 6.332 0 016.341 6.34v19.023" stroke="#00999A" stroke-width="4" stroke-miterlimit="10"/><path d="M76.477 29.498l8.454 8.455 8.455-8.455M65.908 65.43H34.204" stroke="#00999A" stroke-width="4" stroke-miterlimit="10"/></svg>
